X: 1
T: Jockey's Ta'en the Pairtin Kiss
R: air
Z: John Chambers <jc:trillian.mit.edu>
S: handwritten MS from Rich Armstrong
M: C|
L: 1/8
K: D
[|\
"D"D3E F2F2 | F2ED "A7"E4 | "D"D3E F2ED | F2A2 d4 |\
"D"f3e "G"d2cB | "Em"A>BAF "A7"E4 | "D"d3B "G"A>BAG | "A7"F2E2 "D"D4 |]
[|\
"D"d3e f2f2 | f2ed "A7"e4 |  "D"d3f "A"e2fd | "A"c2"E7"B2 "A"A4 |\
"D"f>edB ABdF | "G"G>FED "A7"E4 | "D"d3B "G"A>BdG | "D"F2"A7"E2 "D"D4 |]
